X:1
T:Japhet, LM
T:Japhet, LM
T:Arranged from Anton Rubinstein (1829-1894)
T:Public Domain Courtesy of the Cyber Hymnal™
C:Arranged from Anton Rubinstein (1829-1894)
Z:Public Domain
Z:Courtesy of the Cyber Hymnal™
%%score ( 1 2 ) ( 3 4 )
L:1/8
Q:1/4=110
M:6/8
K:F
V:1 treble 
V:2 treble 
V:3 bass 
V:4 bass 
V:1
 [FA]3 (AG)F | [EG]3- [EG]2 [EA] | [Cc]2 [Cc] [Cc]3- | [Cc]3- [Cc]2 z | [FA]3 (AG)F | %5
 [EG]3- [EG]2 [EA] | [DF]2 D D3- | D2 z ([DF]2 [B,D]) | C2 [CF] [CF]3- | [CF]3 F3 | %10
 [EG]2 [FA] [FA]3- | [FA]3 [FA]3 | [Af]3 [Af]3 | [Fd]3 [FA]3 | [A^c]3- [Ac]2 [Ae] | [Fd]6 | %16
 [FA]3 [FA]2 [FA] | [FB]3 [Fc]3 | ([FG]3 [FG]3 | [EG]3 [EG]2) F | !fermata!F6 |] %21
V:2
 x3 C2 F | x6 | x6 | x6 | x3 C2 F | x6 | x2 D D3- | D2 x4 | C2 x4 | x3 F3 | x6 | x6 | x6 | x6 | %14
 x6 | x6 | x6 | x6 | x6 | x5 F | F6 |] %21
V:3
 [F,C]3 (CB,)[F,A,] | [C,C]3- [C,C]2 [A,,C] | [F,,A,]2 [F,,A,] [F,,A,]3- | [F,,A,]3- [F,,A,]2 z | %4
 [F,C]3 (CB,)[F,A,] | [C,C]3- [C,C]2 [^C,A,] | [D,A,]2 [D,F,] [D,F,]3- | [D,F,]2 z B,3 | %8
 [F,A,]2 [F,A,] [F,A,]3- | [F,A,]3 [F,A,]3 | [C,C]2 [F,C] [F,C]3- | [F,C]3 [F,C]3 | [D,D]3 [D,D]3 | %13
 [F,D]3 [A,D]3 | [A,E]3- [A,E]2 [A,^C] | [D,D]6 | [F,C]3 [F,C]2 [F,C] | [B,,D]3 [A,,C]3 | %18
 ([C,C]3 [C,C]3 | [C,B,]3 [C,B,]2) [F,A,] | !fermata![F,A,]6 |] %21
V:4
 x3 F,2 x | x6 | x6 | x6 | x3 F,2 x | x6 | x6 | x3 (B,,2 D,) | x6 | x6 | x6 | x6 | x6 | x6 | x6 | %15
 x6 | x6 | x6 | x6 | x6 | x6 |] %21

